findly-builder/apps/searchassist/src/assets/images/source-icos/globe.svg

<svg width="76" height="76" viewBox="0 0 76 76" fill="none" xmlns="http://www.w3.org/2000/svg">
<path d="M6.3335 38C6.3335 20.5121 20.5122 6.33337 38.0002 6.33337C55.4881 6.33337 69.6668 20.5121 69.6668 38C69.6668 55.488 55.4881 69.6667 38.0002 69.6667C20.5122 69.6667 6.3335 55.488 6.3335 38Z" fill="#DD3646"/>
<path d="M64.9166 38C64.9166 32.8716 63.851 28.0393 62.0049 23.75H66.2514C65.7004 22.6591 65.1034 21.5967 64.4337 20.5834H60.4564C55.6351 12.008 47.3749 6.33337 38 6.33337C28.625 6.33337 20.3648 12.008 15.5435 20.5834H11.5662C10.8965 21.5967 10.2995 22.6591 9.74854 23.75H13.995C12.1489 28.0393 11.0833 32.8716 11.0833 38C11.0833 43.1285 12.1489 47.9608 13.995 52.25H9.74854C10.2995 53.341 10.8965 54.4034 11.5662 55.4167H15.5435C20.3648 63.992 28.625 69.6667 38 69.6667C47.3749 69.6667 55.6351 63.992 60.4564 55.4167H64.4337C65.1034 54.4034 65.7004 53.341 66.2514 52.25H62.0049C63.851 47.9608 64.9166 43.1285 64.9166 38ZM61.7499 38C61.7499 43.1934 60.5672 48.0526 58.5374 52.25H49.3651C50.2249 47.7645 50.6666 42.834 50.6666 38C50.6666 33.1661 50.2249 28.2356 49.3651 23.75H58.5374C60.5672 27.9475 61.7499 32.8067 61.7499 38ZM38 66.5C35.3241 66.5 32.4725 62.3248 30.5995 55.4167H45.402C43.5274 62.3248 40.6758 66.5 38 66.5ZM29.8426 52.25C29.0082 48.154 28.5 43.3375 28.5 38C28.5 32.6626 29.0082 27.8461 29.8426 23.75H46.1573C46.9917 27.8461 47.5 32.6626 47.5 38C47.5 43.3375 46.9917 48.154 46.1573 52.25H29.8426ZM38 9.50004C40.6758 9.50004 43.5274 13.6753 45.4005 20.5834H30.5979C32.4725 13.6753 35.3241 9.50004 38 9.50004ZM56.7577 20.5834H48.6653C47.6741 16.6266 46.3235 13.167 44.6246 10.6511C49.4997 12.3548 53.7209 15.884 56.7577 20.5834ZM31.3753 10.6511C29.6764 13.1686 28.3258 16.6266 27.3346 20.5834H19.2422C22.279 15.884 26.5002 12.3548 31.3753 10.6511ZM14.25 38C14.25 32.8067 15.4327 27.9475 17.4625 23.75H26.6348C25.775 28.2356 25.3333 33.1661 25.3333 38C25.3333 42.834 25.775 47.7645 26.6348 52.25H17.4625C15.4327 48.0526 14.25 43.1934 14.25 38ZM19.2422 55.4167H27.3346C28.3258 59.3735 29.6764 62.833 31.3753 65.349C26.5002 63.6453 22.279 60.116 19.2422 55.4167ZM44.6246 65.349C46.3235 62.8315 47.6741 59.3735 48.6653 55.4167H56.7577C53.7209 60.116 49.4997 63.6453 44.6246 65.349Z" fill="#EF9AA3"/>
<path opacity="0.05" d="M67.0289 30.0834H62.8489C62.2947 30.0834 61.8166 30.4713 61.7026 31.0128L60.9568 34.5626L60.0369 30.9637C59.9055 30.446 59.4384 30.0834 58.9032 30.0834H55.0969C54.5617 30.0834 54.0947 30.446 53.9617 30.9653L53.0417 34.5642L52.296 31.0144C52.1836 30.4713 51.7054 30.0834 51.1512 30.0834H43.8489C43.2947 30.0834 42.8166 30.4713 42.7026 31.0128L41.9568 34.5626L41.0369 30.9637C40.9055 30.446 40.4384 30.0834 39.9032 30.0834H36.0969C35.5617 30.0834 35.0947 30.446 34.9617 30.9653L34.0417 34.5642L33.296 31.0144C33.1836 30.4713 32.7054 30.0834 32.1512 30.0834H24.8489C24.2948 30.0834 23.8166 30.4713 23.7026 31.0128L22.9568 34.5626L22.0369 30.9637C21.9055 30.446 21.4384 30.0834 20.9032 30.0834H17.0969C16.5618 30.0834 16.0947 30.446 15.9617 30.9653L15.0433 34.5642L14.2976 31.0128C14.1836 30.4713 13.7054 30.0834 13.1513 30.0834H8.97125C8.20967 30.0834 7.65075 30.799 7.836 31.5385L11.2085 45.03C11.3383 45.551 11.807 45.9167 12.3438 45.9167H16.8626C17.393 45.9167 17.8553 45.5668 17.9915 45.0554C18.2955 43.9233 18.8117 41.9948 18.9985 41.287C19.1853 41.9948 19.7015 43.9233 20.0055 45.0554C20.1448 45.5668 20.6072 45.9167 21.1376 45.9167H25.6564C26.1932 45.9167 26.6618 45.551 26.7917 45.03L28.5001 38.198L30.2085 45.03C30.3383 45.551 30.807 45.9167 31.3437 45.9167H35.8626C36.393 45.9167 36.8553 45.5668 36.9915 45.0554C37.2955 43.9233 37.8117 41.9948 37.9985 41.287C38.1853 41.9948 38.7015 43.9233 39.0055 45.0554C39.1448 45.5668 39.6072 45.9167 40.1376 45.9167H44.6564C45.1932 45.9167 45.6618 45.551 45.7917 45.03L47.5001 38.198L49.2085 45.03C49.3383 45.551 49.807 45.9167 50.3437 45.9167H54.8626C55.393 45.9167 55.8553 45.5668 55.9915 45.0554C56.2955 43.9233 56.8117 41.9948 56.9985 41.287C57.1853 41.9948 57.7015 43.9233 58.0055 45.0554C58.1448 45.5668 58.6072 45.9167 59.1376 45.9167H63.6564C64.1932 45.9167 64.6618 45.551 64.7917 45.03L68.1642 31.5385C68.3494 30.799 67.7905 30.0834 67.0289 30.0834Z" fill="black"/>
<path opacity="0.07" d="M66.4256 30.875H63.232C62.8299 30.875 62.4815 31.1568 62.3992 31.5511L61.0328 38.057L59.3624 31.5147C59.2658 31.1378 58.927 30.875 58.5375 30.875H55.4626C55.0747 30.875 54.7343 31.1378 54.6377 31.5147L52.9673 38.057L51.5993 31.5511C51.517 31.1568 51.1686 30.875 50.7665 30.875H44.2289C43.8267 30.875 43.4784 31.1568 43.396 31.5511L42.0296 38.057L40.3592 31.5147C40.2626 31.1378 39.9238 30.875 39.5343 30.875H36.4595C36.0715 30.875 35.7311 31.1378 35.6345 31.5147L33.9641 38.057L32.5961 31.5511C32.5138 31.1568 32.1655 30.875 31.7633 30.875H25.2257C24.8235 30.875 24.4752 31.1568 24.3929 31.5511L23.0265 38.057L21.356 31.5147C21.2595 31.1378 20.9206 30.875 20.5311 30.875H17.4563C17.0684 30.875 16.728 31.1378 16.6314 31.5147L14.961 38.057L13.6009 31.5511C13.5185 31.1568 13.1718 30.875 12.7696 30.875H9.57445C9.02187 30.875 8.61495 31.3943 8.74954 31.9327L11.8861 44.4806C11.9811 44.859 12.3215 45.125 12.711 45.125H16.5C16.8847 45.125 17.2204 44.8701 17.3201 44.498C17.7033 43.0667 18.8797 38.6666 18.9969 38.0602C19.1156 38.6666 20.2905 43.0683 20.6736 44.498C20.7734 44.8701 21.109 45.125 21.4938 45.125H25.2827C25.6738 45.125 26.0126 44.859 26.1076 44.4806L28.5 34.9331L30.8877 44.4806C30.9827 44.859 31.3231 45.125 31.7126 45.125H35.5015C35.8863 45.125 36.222 44.8701 36.3217 44.498C36.7049 43.0667 37.8813 38.6666 37.9985 38.0602C38.1172 38.6666 39.292 43.0683 39.6752 44.498C39.775 44.8701 40.1106 45.125 40.4954 45.125H44.2843C44.6754 45.125 45.0142 44.859 45.1092 44.4806L47.5 34.9331L49.8877 44.4806C49.9827 44.859 50.3231 45.125 50.7126 45.125H54.5015C54.8863 45.125 55.222 44.8701 55.3217 44.498C55.7049 43.0667 56.8813 38.6666 56.9985 38.0602C57.1172 38.6666 58.292 43.0683 58.6752 44.498C58.775 44.8701 59.1106 45.125 59.4954 45.125H63.2843C63.6754 45.125 64.0142 44.859 64.1092 44.4806L67.2458 31.9327C67.3851 31.3943 66.9782 30.875 66.4256 30.875Z" fill="black"/>
<path d="M44.1829 31.6666L42.1056 41.5514L39.5833 31.6666H36.4167L33.8944 41.5514L31.8171 31.6666H28.5L31.6667 44.3333H35.5474C35.5474 44.3333 37.943 35.4096 38 34.8333C38.057 35.4096 40.4526 44.3333 40.4526 44.3333H44.3333L47.5 31.6666H44.1829Z" fill="white"/>
<path d="M25.1829 31.6666L23.1056 41.5514L20.5833 31.6666H17.4167L14.8944 41.5514L12.8171 31.6666H9.5L12.6667 44.3333H16.5474C16.5474 44.3333 18.943 35.4096 19 34.8333C19.057 35.4096 21.4526 44.3333 21.4526 44.3333H25.3333L28.5 31.6666H25.1829Z" fill="white"/>
<path d="M63.1829 31.6666L61.1056 41.5514L58.5833 31.6666H55.4167L52.8944 41.5514L50.8171 31.6666H47.5L50.6667 44.3333H54.5474C54.5474 44.3333 56.943 35.4096 57 34.8333C57.057 35.4096 59.4526 44.3333 59.4526 44.3333H63.3333L66.5 31.6666H63.1829Z" fill="white"/>
</svg>

<svg width="76" height="76" fill="none" xmlns="http://www.w3.org/2000/svg"><path d="M6.333 38C6.333 20.512 20.514 6.333 38 6.333c17.488 0 31.667 14.18 31.667 31.667 0 17.488-14.179 31.667-31.667 31.667S6.334 55.488 6.334 38Z" fill="#DD3646"/><path d="M64.917 38a36.03 36.03 0 0 0-2.912-14.25h4.246a31.414 31.414 0 0 0-1.817-3.167h-3.978C55.636 12.008 47.375 6.333 38 6.333s-17.635 5.675-22.456 14.25h-3.978A31.406 31.406 0 0 0 9.75 23.75h4.246A36.024 36.024 0 0 0 11.083 38c0 5.129 1.066 9.96 2.912 14.25H9.749a31.397 31.397 0 0 0 1.817 3.167h3.977c4.822 8.575 13.082 14.25 22.457 14.25s17.635-5.675 22.456-14.25h3.978a31.405 31.405 0 0 0 1.817-3.167h-4.246A36.023 36.023 0 0 0 64.917 38Zm-3.167 0c0 5.193-1.183 10.053-3.213 14.25h-9.172c.86-4.486 1.302-9.416 1.302-14.25s-.442-9.764-1.302-14.25h9.172c2.03 4.198 3.213 9.057 3.213 14.25ZM38 66.5c-2.676 0-5.528-4.175-7.4-11.083h14.802C43.527 62.325 40.676 66.5 38 66.5Zm-8.157-14.25C29.008 48.154 28.5 43.337 28.5 38s.508-10.154 1.343-14.25h16.314C46.992 27.846 47.5 32.663 47.5 38s-.508 10.154-1.343 14.25H29.843ZM38 9.5c2.676 0 5.527 4.175 7.4 11.083H30.599C32.472 13.675 35.324 9.5 38 9.5Zm18.758 11.083h-8.093c-.99-3.956-2.341-7.416-4.04-9.932 4.875 1.704 9.096 5.233 12.133 9.932Zm-25.383-9.932c-1.699 2.518-3.05 5.976-4.04 9.932h-8.093c3.037-4.699 7.258-8.228 12.133-9.932ZM14.25 38c0-5.193 1.183-10.052 3.212-14.25h9.173c-.86 4.486-1.302 9.416-1.302 14.25s.442 9.764 1.302 14.25h-9.173c-2.03-4.197-3.212-9.057-3.212-14.25Zm4.992 17.417h8.093c.99 3.956 2.341 7.416 4.04 9.932-4.875-1.704-9.096-5.233-12.133-9.932Zm25.383 9.932c1.699-2.518 3.05-5.976 4.04-9.932h8.093c-3.037 4.699-7.258 8.228-12.133 9.932Z" fill="#EF9AA3"/><path opacity=".05" d="M67.029 30.083h-4.18a1.17 1.17 0 0 0-1.146.93l-.746 3.55-.92-3.6a1.17 1.17 0 0 0-1.134-.88h-3.806c-.535 0-1.002.363-1.135.882l-.92 3.6-.746-3.55a1.168 1.168 0 0 0-1.145-.932H43.85a1.17 1.17 0 0 0-1.146.93l-.746 3.55-.92-3.6a1.17 1.17 0 0 0-1.134-.88h-3.806c-.535 0-1.002.363-1.135.882l-.92 3.6-.746-3.55a1.168 1.168 0 0 0-1.145-.932H24.85a1.17 1.17 0 0 0-1.146.93l-.746 3.55-.92-3.6a1.17 1.17 0 0 0-1.134-.88h-3.806c-.535 0-1.002.363-1.135.882l-.919 3.6-.745-3.552a1.171 1.171 0 0 0-1.147-.93h-4.18a1.17 1.17 0 0 0-1.135 1.456L11.21 45.03c.13.521.598.887 1.135.887h4.519c.53 0 .992-.35 1.128-.862.305-1.132.82-3.06 1.008-3.768.186.708.703 2.636 1.007 3.768.139.512.601.862 1.132.862h4.518a1.17 1.17 0 0 0 1.136-.887l1.708-6.832 1.709 6.832c.13.521.598.887 1.135.887h4.519c.53 0 .992-.35 1.129-.862.303-1.132.82-3.06 1.007-3.768.186.708.703 2.636 1.006 3.768.14.512.602.862 1.133.862h4.518a1.17 1.17 0 0 0 1.136-.887l1.708-6.832 1.709 6.832c.13.521.598.887 1.135.887h4.519c.53 0 .992-.35 1.129-.862.303-1.132.82-3.06 1.007-3.768.186.708.703 2.636 1.006 3.768.14.512.602.862 1.133.862h4.518a1.17 1.17 0 0 0 1.136-.887l3.372-13.492a1.17 1.17 0 0 0-1.135-1.455Z" fill="#000"/><path opacity=".07" d="M66.426 30.875h-3.194a.85.85 0 0 0-.833.676l-1.366 6.506-1.67-6.542a.85.85 0 0 0-.825-.64h-3.075a.852.852 0 0 0-.825.64l-1.67 6.542-1.369-6.506a.85.85 0 0 0-.832-.676h-6.538a.85.85 0 0 0-.833.676l-1.366 6.506-1.67-6.542a.85.85 0 0 0-.826-.64H36.46a.852.852 0 0 0-.825.64l-1.67 6.542-1.368-6.506a.85.85 0 0 0-.833-.676h-6.537a.85.85 0 0 0-.833.676l-1.367 6.506-1.67-6.542a.85.85 0 0 0-.825-.64h-3.075a.852.852 0 0 0-.825.64l-1.67 6.542-1.36-6.506a.85.85 0 0 0-.831-.676H9.574a.85.85 0 0 0-.824 1.058l3.136 12.548a.852.852 0 0 0 .825.644H16.5c.385 0 .72-.255.82-.627.383-1.431 1.56-5.831 1.677-6.438.119.607 1.294 5.008 1.677 6.438.1.372.435.627.82.627h3.789a.85.85 0 0 0 .825-.644l2.392-9.548 2.388 9.548a.852.852 0 0 0 .825.644H35.5a.845.845 0 0 0 .82-.627c.384-1.431 1.56-5.831 1.678-6.438.118.607 1.293 5.008 1.676 6.438.1.372.436.627.82.627h3.79a.85.85 0 0 0 .824-.644l2.391-9.548 2.388 9.548a.852.852 0 0 0 .825.644H54.5a.845.845 0 0 0 .82-.627c.384-1.431 1.56-5.831 1.678-6.438.118.607 1.293 5.008 1.676 6.438.1.372.436.627.82.627h3.79a.85.85 0 0 0 .824-.644l3.137-12.548a.846.846 0 0 0-.82-1.058Z" fill="#000"/><path d="m44.183 31.667-2.077 9.884-2.523-9.884h-3.166l-2.523 9.884-2.077-9.884H28.5l3.167 12.666h3.88s2.396-8.923 2.453-9.5c.057.577 2.453 9.5 2.453 9.5h3.88L47.5 31.667h-3.317Zm-19 0-2.077 9.884-2.523-9.884h-3.166l-2.523 9.884-2.077-9.884H9.5l3.167 12.666h3.88s2.396-8.923 2.453-9.5c.057.577 2.453 9.5 2.453 9.5h3.88L28.5 31.667h-3.317Zm38 0-2.077 9.884-2.523-9.884h-3.166l-2.523 9.884-2.077-9.884H47.5l3.167 12.666h3.88s2.396-8.923 2.453-9.5c.057.577 2.453 9.5 2.453 9.5h3.88L66.5 31.667h-3.317Z" fill="#fff"/></svg>
